icons/initial.svg

<?xml version="1.0" encoding="UTF-8"?>
<svg width="24px" height="24px" viewBox="0 0 24 24" version="1.1" xmlns="http://www.w3.org/2000/svg" xmlns:xlink="http://www.w3.org/1999/xlink">
    <!-- Generator: Sketch 40.3 (33839) - http://www.bohemiancoding.com/sketch -->
    <title>initial</title>
    <desc>Created with Sketch.</desc>
    <defs></defs>
    <g id="Page-1" stroke="none" stroke-width="1" fill="none" fill-rule="evenodd">
        <g id="initial" fill="#777777">
            <path d="M7.625,6 L6.74662162,6 C6.25675676,6 5.88513514,6.08445946 5.78378378,6.35472973 L2.06756757,17.2162162 C2.03378378,17.3344595 2,17.4358108 2,17.5202703 C2,17.7567568 2.32094595,17.8918919 3.03040541,17.8918919 L3.70608108,17.8918919 C4.11148649,17.8918919 4.39864865,17.7905405 4.48310811,17.5371622 L5.15878378,15.4763514 L9.14527027,15.4763514 L9.82094595,17.5371622 C9.90540541,17.8074324 10.277027,17.8918919 10.7668919,17.8918919 L11.5101351,17.8918919 C12.1013514,17.8918919 12.3547297,17.7567568 12.3547297,17.5202703 C12.3547297,17.4358108 12.3378378,17.3344595 12.3040541,17.2162162 L8.58783784,6.35472973 C8.48648649,6.08445946 8.11486486,6 7.625,6 L7.625,6 Z M7.2027027,9.15878378 C7.27027027,9.51351351 7.33783784,9.88513514 7.45608108,10.2398649 L8.41891892,13.2466216 L5.88513514,13.2466216 L6.88175676,10.2398649 C7.01689189,9.88513514 7.06756757,9.51351351 7.13513514,9.15878378 L7.2027027,9.15878378 Z M17.5405405,6.03378378 L14.1959459,6.03378378 C13.722973,6.03378378 13.5202703,6.23648649 13.5202703,6.70945946 L13.5202703,17.1824324 C13.5202703,17.6554054 13.722973,17.8581081 14.1959459,17.8581081 L17.777027,17.8581081 C20.6317568,17.8581081 22,16.6081081 22,14.4290541 C22,13.1283784 21.0709459,11.9290541 19.7195946,11.6587838 L19.7027027,11.5912162 C20.7162162,11.1689189 21.527027,10.1722973 21.527027,9.02364865 C21.527027,7.25 20.3952703,6.03378378 17.5405405,6.03378378 L17.5405405,6.03378378 Z M17.3209459,8.22972973 C18.3513514,8.22972973 18.8581081,8.65202703 18.8581081,9.47972973 C18.8581081,10.1891892 18.3006757,10.7466216 17.2871622,10.7466216 L16.1216216,10.7466216 L16.1216216,8.22972973 L17.3209459,8.22972973 Z M17.5067568,12.9594595 C18.6722973,12.9594595 19.3310811,13.3986486 19.3310811,14.277027 C19.3310811,15.1554054 18.7567568,15.6452703 17.777027,15.6452703 L16.1216216,15.6452703 L16.1216216,12.9594595 L17.5067568,12.9594595 Z" id="AB"></path>
        </g>
    </g>
</svg>

<svg xmlns="http://www.w3.org/2000/svg" viewBox="0 0 24 24">
  <path fill-rule="evenodd" d="M7.625 6h-.878c-.49 0-.862.084-.963.355l-3.716 10.86c-.034.12-.068.22-.068.305 0 .237.32.372 1.03.372h.676c.405 0 .693-.1.777-.355l.676-2.06h3.985l.676 2.06c.085.27.457.355.947.355h.743c.59 0 .845-.135.845-.372 0-.084-.017-.186-.05-.304L8.587 6.356C8.486 6.083 8.115 6 7.625 6zm-.422 3.16c.067.354.135.725.253 1.08l.963 3.007H5.884l.997-3.007c.135-.355.186-.726.253-1.08h.068zM17.54 6.033h-3.344c-.473 0-.676.202-.676.675V17.18c0 .473.203.676.676.676h3.58c2.856 0 4.224-1.25 4.224-3.43 0-1.3-.93-2.5-2.28-2.77l-.017-.067c1.013-.42 1.824-1.418 1.824-2.566 0-1.774-1.132-2.99-3.986-2.99zm-.22 2.196c1.03 0 1.538.422 1.538 1.25 0 .71-.557 1.267-1.57 1.267H16.12V8.23h1.2zm.187 4.73c1.165 0 1.824.44 1.824 1.317 0 .878-.573 1.368-1.553 1.368h-1.655V12.96h1.385z"/>
</svg>
